Numix/64/mimetypes/text-x-iptables.svg

<?xml version="1.0" encoding="UTF-8" standalone="no"?>
<svg
   xmlns:dc="http://purl.org/dc/elements/1.1/"
   xmlns:cc="http://creativecommons.org/ns#"
   xmlns:rdf="http://www.w3.org/1999/02/22-rdf-syntax-ns#"
   xmlns:svg="http://www.w3.org/2000/svg"
   xmlns="http://www.w3.org/2000/svg"
   xmlns:sodipodi="http://sodipodi.sourceforge.net/DTD/sodipodi-0.dtd"
   xmlns:inkscape="http://www.inkscape.org/namespaces/inkscape"
   width="64px"
   height="64px"
   viewBox="0 0 64 64"
   version="1.1"
   id="svg2"
   inkscape:version="0.91 r13725"
   sodipodi:docname="text-x-iptables.svg">
  <metadata
     id="metadata15">
    <rdf:RDF>
      <cc:Work
         rdf:about="">
        <dc:format>image/svg+xml</dc:format>
        <dc:type
           rdf:resource="http://purl.org/dc/dcmitype/StillImage" />
        <dc:title />
      </cc:Work>
    </rdf:RDF>
  </metadata>
  <defs
     id="defs13">
    <clipPath
       id="clipPath-889157936">
      <g
         transform="translate(0,-1004.3622)"
         id="g17">
        <path
           style="fill:#1890d0"
           inkscape:connector-curvature="0"
           d="m -24,13 c 0,1.105 -0.672,2 -1.5,2 -0.828,0 -1.5,-0.895 -1.5,-2 0,-1.105 0.672,-2 1.5,-2 0.828,0 1.5,0.895 1.5,2 z"
           transform="matrix(15.333333,0,0,11.5,414.99999,878.8622)"
           id="path19" />
      </g>
    </clipPath>
  </defs>
  <sodipodi:namedview
     pagecolor="#ffffff"
     bordercolor="#666666"
     borderopacity="1"
     objecttolerance="10"
     gridtolerance="10"
     guidetolerance="10"
     inkscape:pageopacity="0"
     inkscape:pageshadow="2"
     inkscape:window-width="1366"
     inkscape:window-height="717"
     id="namedview11"
     showgrid="false"
     inkscape:zoom="1"
     inkscape:cx="17.349237"
     inkscape:cy="22.206645"
     inkscape:window-x="0"
     inkscape:window-y="26"
     inkscape:window-maximized="1"
     inkscape:current-layer="svg2">
    <inkscape:grid
       type="xygrid"
       id="grid3019" />
  </sodipodi:namedview>
  <path
     style="fill:#2d2d2d;fill-opacity:1"
     d="M 10.671721,0.00190094 C 9.2968016,0.00193117 8,1.3548555 8,2.7893139 L 8,61.212592 C 8,62.565543 9.3749199,64 10.671721,64 l 42.653794,0 c 1.296802,0 2.671721,-1.434457 2.671721,-2.787408 L 55.99902,18.000939 37.999388,0.0013069 z"
     id="path4-1"
     inkscape:connector-curvature="0"
     sodipodi:nodetypes="ssssssccs" />
  <path
     style="fill:#000000;fill-opacity:0.19599998"
     d="m 41.999306,18.000939 13.999714,13.999714 0,-13.999714 z"
     id="path6-4"
     inkscape:connector-curvature="0"
     sodipodi:nodetypes="cccc" />
  <path
     style="fill:#ffffff;fill-opacity:0.39200003"
     d="m 38,0.00190094 17.98282,17.99903806 -15.226213,0 C 39.410732,18.000939 38,16.57399 38,15.228116 z"
     id="path8-6"
     inkscape:connector-curvature="0"
     sodipodi:nodetypes="ccssc" />
  <g
     id="g53"
     clip-path="url(#clipPath-889157936)"
     transform="matrix(1.3333062,0,0,1.3333062,1.6336238e-4,3.9985596)">
    <!-- color: #aade54 -->
    <g
       id="g55" />
  </g>
  <path
     inkscape:connector-curvature="0"
     style="fill:#ef9815;fill-opacity:1;fill-rule:nonzero;stroke:none"
     d="m 28.029116,21.000001 c -0.57724,0.8292 -1.044864,3.672168 0.624504,5.077496 1.972071,1.683168 2.392431,3.705552 2.392431,6.768199 0,4.307528 -3.398075,7.75678 -1.005648,11.8457 -6.678483,-5.889464 0.05128,-14.727431 -5.028219,-18.306987 2.011288,5.384407 -5.02823,8.615051 -5.012136,13.840083 -0.016,5.543788 4.006488,8.774432 8.834592,8.762588 C 25.39332,47.489136 23.829544,42.967308 24.006536,40.384948 26.42612,46.257184 30.040403,49 36.074275,49 c -2.326056,-3.252184 -2.706192,-3.663552 -2.839944,-5.73332 0.012,-1.909308 0.731104,-2.334676 1.98816,-4.72428 3.162756,-5.313332 1.716636,-10.676203 -2.588528,-13.178875 -0.875916,-0.467364 -1.111236,-0.597668 -2.706192,-1.266412 -0.919155,-0.458752 -1.834295,-1.455944 -1.897647,-3.096036 m 10.787547,8.997348 c 3.189908,4.371063 -0.443488,7.920463 -2.10984,10.596515 -1.366672,2.103148 -0.05128,5.582552 1.37874,8.40506 0.12572,-2.385292 1.61104,-4.025384 2.812788,-4.879352 3.68066,-2.965732 3.79832,-6.843584 1.846364,-10.293912 -1.225884,-1.893156 -2.309968,-2.506979 -3.928052,-3.828311 m 0,0"
     id="path64" />
</svg>

<svg xmlns="http://www.w3.org/2000/svg" viewBox="0 0 64 64">
 <defs>
  
 </defs>
 <path d="m 10.672 0.002 c -1.375 0 -2.672 1.353 -2.672 2.787 l 0 58.42 c 0 1.353 1.375 2.787 2.672 2.787 l 42.654 0 c 1.297 0 2.672 -1.434 2.672 -2.787 l 0.002 -43.21 -18 -18 z" style="fill:#2d2d2d;fill-opacity:1"/>
 <path d="m 41.999 18 14 14 0 -14 z" style="fill:#000;fill-opacity:0.196"/>
 <path d="m 38 0.002 17.983 17.999 -15.226 0 c -1.346 0 -2.757 -1.427 -2.757 -2.773 z" style="fill:#fff;fill-opacity:0.392"/>
 <g transform="matrix(1.3333062,0,0,1.3333062,1.6336238e-4,3.9985596)" style="clip-path:url(#clipPath-889157936)">
  <!-- color: #aade54 -->
 </g>
 <path d="m 28.03 21 c -0.577 0.829 -1.045 3.672 0.625 5.077 1.972 1.683 2.392 3.706 2.392 6.768 0 4.308 -3.398 7.757 -1.01 11.846 -6.678 -5.889 0.051 -14.727 -5.03 -18.307 2.01 5.384 -5.03 8.615 -5.01 13.84 -0.016 5.544 4.01 8.774 8.835 8.763 c -3.441 -1.498 -5.01 -6.02 -4.828 -8.602 2.42 5.872 6.03 8.615 12.07 8.615 c -2.326 -3.252 -2.706 -3.664 -2.84 -5.733 0.012 -1.909 0.731 -2.335 1.988 -4.724 3.163 -5.313 1.717 -10.676 -2.589 -13.179 -0.876 -0.467 -1.111 -0.598 -2.706 -1.266 -0.919 -0.459 -1.834 -1.456 -1.898 -3.096 m 10.788 8.997 c 3.19 4.371 -0.443 7.92 -2.11 10.597 -1.367 2.103 -0.051 5.583 1.379 8.405 0.126 -2.385 1.611 -4.03 2.813 -4.879 3.681 -2.966 3.798 -6.844 1.846 -10.294 -1.226 -1.893 -2.31 -2.507 -3.928 -3.828 m 0 0" style="fill:#ef9815;fill-opacity:1;stroke:none;fill-rule:nonzero"/>
</svg>
